; generated by PrusaSlicer 2.4.0+win64 on 2022-03-02 at 12:38:22 UTC


;
;

;
;
; 

; external perimeters extrusion width = 0.45mm
; perimeters extrusion width = 0.45mm
; infill extrusion width = 0.45mm
; solid infill extrusion width = 0.45mm
; top infill extrusion width = 0.40mm
; first layer extrusion width = 0.42mm

M73 P0 R90
M201 X2500 Y2500 Z400 E5000 ; sets maximum accelerations, mm/sec^2
M203 X180 Y180 Z12 E80 ; sets maximum feedrates, mm/sec
M204 P1250 R1250 T2500 ; sets acceleration (P, T) and retract acceleration (R), mm/sec^2
M205 X8.00 Y8.00 Z2.00 E10.00 ; sets the jerk limits, mm/sec
M205 S0 T0 ; sets the minimum extruding and travel feed rate, mm/sec
M107
;TYPE:Custom
M862.3 P "MINI" ; printer model check
G90 ; use absolute coordinates
M83 ; extruder relative mode
M104 S170 ; set extruder temp for bed leveling
M140 S60 ; set bed temp
M109 R170 ; wait for bed leveling temp
M190 S60 ; wait for bed temp
M204 T1250 ; set travel acceleration
G28 ; home all without mesh bed level
G29 ; mesh bed leveling 
M204 T2500 ; restore travel acceleration
M104 S215 ; set extruder temp
G92 E0
G1 Y-2 X179 F2400
G1 Z3 F720
M109 S215 ; wait for extruder temp

; intro line
G1 X170 F1000
G1 Z0.2 F720
G1 X110 E8 F900
G1 X40 E10 F700
G92 E0

M221 S95 ; set flow
G21 ; set units to millimeters
G90 ; use absolute coordinates
M83 ; use relative distances for extrusion
M900 K0.2 ; Filament gcode LA 1.5
; ; Filament gcode LA 1.0
M107
;LAYER_CHANGE
;Z:0.2
;HEIGHT:0.2
;BEFORE_LAYER_CHANGE
G92 E0.0
;0.2


G1 E-3.2 F4200
G1 Z.2 F720
;AFTER_LAYER_CHANGE
;0.2
G1 Z.4
G1 X45.015 Y49.193 F9000
G1 Z.2 F720
G1 E3.2 F2400
M204 P800
;TYPE:Skirt/Brim
;WIDTH:0.42
G1 F1200
G1 X46.06 Y48.317 E.04278
G1 X47 Y48.123 E.03008
G1 X133 Y48.123 E2.69647
G1 X134.307 Y48.515 E.04278
G1 X135.183 Y49.56 E.04278
G1 X135.377 Y50.5 E.03008
G1 X135.377 Y129.5 E2.47699
G1 X134.985 Y130.807 E.04278
G1 X133.94 Y131.683 E.04278
G1 X133 Y131.877 E.03008
G1 X47 Y131.877 E2.69647
G1 X45.693 Y131.485 E.04278
G1 X44.817 Y130.44 E.04278
G1 X44.623 Y129.5 E.03008
G1 X44.623 Y50.5 E2.47699
G1 X44.997 Y49.25 E.0409
M204 P1000
; printing object Remarkable card protector v2.stl id:0 copy 0
G1 E-2.24 F4200
;WIPE_START
G1 F7200
G1 X46.06 Y48.317 E-.78411
G1 X46.286 Y48.27 E-.12789
;WIPE_END
G1 E-.048 F4200
G1 Z.4 F720
G1 X48.187 Y51.287 F9000
G1 Z.2 F720
G1 E3.2 F2400
M204 P800
;TYPE:Perimeter
G1 F1200
G1 X132.213 Y51.287 E2.63457
G1 X132.213 Y70.765 E.61071
G1 X131.871 Y70.788 E.01074
G1 X130.764 Y71.018 E.03547
G1 X129.698 Y71.397 E.03547
G1 X128.693 Y71.918 E.03547
G1 X127.769 Y72.57 E.03547
G1 X126.942 Y73.342 E.03547
G1 X126.228 Y74.22 E.03547
G1 X125.64 Y75.187 E.03547
G1 X125.19 Y76.224 E.03547
G1 X124.884 Y77.314 E.03547
G1 X124.73 Y78.434 E.03547
G1 X124.73 Y79.566 E.03547
G1 X124.884 Y80.686 E.03547
G1 X125.19 Y81.776 E.03547
G1 X125.64 Y82.813 E.03547
G1 X125.722 Y82.947 E.0049
G1 X126.228 Y83.78 E.03057
G1 X126.942 Y84.658 E.03547
G1 X127.769 Y85.43 E.03547
G1 X128.693 Y86.082 E.03547
G1 X129.698 Y86.603 E.03547
G1 X130.764 Y86.982 E.03547
G1 X131.871 Y87.212 E.03547
G1 X132.213 Y87.235 E.01074
G1 X132.213 Y110.265 E.72208
G1 X131.871 Y110.288 E.01074
G1 X130.764 Y110.518 E.03547
G1 X129.698 Y110.897 E.03547
G1 X128.693 Y111.418 E.03547
G1 X128.566 Y111.508 E.0049
G1 X127.769 Y112.07 E.03057
G1 X126.942 Y112.842 E.03547
G1 X126.228 Y113.72 E.03547
G1 X125.64 Y114.687 E.03547
G1 X125.578 Y114.83 E.0049
G1 X125.19 Y115.724 E.03057
G1 X124.884 Y116.814 E.03547
G1 X124.73 Y117.934 E.03547
G1 X124.73 Y119.066 E.03547
G1 X124.884 Y120.186 E.03547
G1 X125.19 Y121.276 E.03547
G1 X125.64 Y122.313 E.03547
G1 X126.228 Y123.28 E.03547
G1 X126.942 Y124.158 E.03547
G1 X127.769 Y124.93 E.03547
G1 X128.693 Y125.582 E.03547
G1 X129.698 Y126.103 E.03547
G1 X130.764 Y126.482 E.03547
G1 X131.871 Y126.712 E.03547
G1 X132.213 Y126.735 E.01074
G1 X132.213 Y128.713 E.06201
G1 X47.787 Y128.713 E2.64711
G1 X47.787 Y51.287 E2.42763
G1 X48.127 Y51.287 E.01066
M204 P1000
M73 P0 R89
G1 X47.41 Y50.91 F9000
M204 P800
;TYPE:External perimeter
G1 F1200
G1 X132.59 Y50.91 E2.67076
G1 X132.59 Y71.117 E.63358
M73 P1 R89
G1 X131.923 Y71.163 E.02097
G1 X130.866 Y71.382 E.03385
G1 X129.848 Y71.744 E.03385
G1 X128.89 Y72.241 E.03385
G1 X128.007 Y72.863 E.03385
G1 X127.218 Y73.6 E.03385
G1 X126.537 Y74.438 E.03385
G1 X125.976 Y75.36 E.03385
G1 X125.546 Y76.351 E.03385
G1 X125.255 Y77.39 E.03385
G1 X125.107 Y78.46 E.03385
G1 X125.107 Y79.54 E.03385
G1 X125.255 Y80.61 E.03385
G1 X125.546 Y81.649 E.03385
G1 X125.976 Y82.64 E.03385
G1 X126.044 Y82.751 E.00409
G1 X126.537 Y83.562 E.02977
G1 X127.218 Y84.4 E.03385
G1 X128.007 Y85.137 E.03385
G1 X128.89 Y85.759 E.03385
G1 X129.848 Y86.256 E.03385
G1 X130.866 Y86.618 E.03385
G1 X131.923 Y86.837 E.03385
G1 X132.59 Y86.883 E.02097
G1 X132.59 Y110.617 E.74417
G1 X131.923 Y110.663 E.02097
G1 X130.866 Y110.882 E.03385
G1 X129.848 Y111.244 E.03385
G1 X128.89 Y111.741 E.03385
G1 X128.783 Y111.816 E.00409
G1 X128.007 Y112.363 E.02977
G1 X127.218 Y113.1 E.03385
G1 X126.537 Y113.938 E.03385
G1 X125.976 Y114.86 E.03385
G1 X125.546 Y115.851 E.03385
G1 X125.255 Y116.89 E.03385
G1 X125.107 Y117.96 E.03385
G1 X125.107 Y119.04 E.03385
G1 X125.255 Y120.11 E.03385
G1 X125.546 Y121.149 E.03385
G1 X125.976 Y122.14 E.03385
G1 X126.537 Y123.062 E.03385
G1 X127.218 Y123.9 E.03385
G1 X128.007 Y124.637 E.03385
G1 X128.89 Y125.259 E.03385
G1 X129.848 Y125.756 E.03385
G1 X130.866 Y126.118 E.03385
G1 X131.923 Y126.337 E.03385
G1 X132.59 Y126.383 E.02097
G1 X132.59 Y129.09 E.08488
G1 X47.41 Y129.09 E2.67076
G1 X47.41 Y50.97 E2.4494
M204 P1000
G1 X47.798 Y51.008 F9000
G1 E-2.24 F4200
;WIPE_START
G1 F7200
G1 X49.056 Y50.969 E-.912
;WIPE_END
G1 E-.048 F4200
G1 Z.4 F720
G1 X131.335 Y51.4 F9000
G1 Z.2 F720
G1 E3.2 F2400
M204 P800
;TYPE:Solid infill
;WIDTH:0.420998
G1 F1200
G1 X131.93 Y51.995 E.02644
G1 X131.93 Y52.53 E.01681
G1 X130.97 Y51.57 E.04267
G1 X130.436 Y51.57 E.01681
G1 X131.93 Y53.064 E.06644
G1 X131.93 Y53.599 E.01681
G1 X129.901 Y51.57 E.09021
G1 X129.366 Y51.57 E.01681
G1 X131.93 Y54.134 E.11398
G1 X131.93 Y54.668 E.01681
G1 X128.832 Y51.57 E.13775
G1 X128.297 Y51.57 E.01681
G1 X131.93 Y55.203 E.16152
G1 X131.93 Y55.738 E.01681
G1 X127.762 Y51.57 E.1853
G1 X127.228 Y51.57 E.01681
G1 X131.93 Y56.272 E.20907
G1 X131.93 Y56.807 E.01681
G1 X126.693 Y51.57 E.23284
G1 X126.158 Y51.57 E.01681
G1 X131.93 Y57.342 E.25661
G1 X131.93 Y57.876 E.01681
G1 X125.624 Y51.57 E.28038
G1 X125.089 Y51.57 E.01681
G1 X131.93 Y58.411 E.30415
G1 X131.93 Y58.946 E.01681
G1 X124.554 Y51.57 E.32793
G1 X124.02 Y51.57 E.01681
G1 X131.93 Y59.48 E.3517
G1 X131.93 Y60.015 E.01681
G1 X123.485 Y51.57 E.37547
G1 X122.95 Y51.57 E.01681
G1 X131.93 Y60.55 E.39924
G1 X131.93 Y61.085 E.01681
G1 X122.415 Y51.57 E.42301
G1 X121.881 Y51.57 E.01681
G1 X131.93 Y61.619 E.44678
G1 X131.93 Y62.154 E.01681
G1 X121.346 Y51.57 E.47055
G1 X120.811 Y51.57 E.01681
G1 X131.93 Y62.689 E.49433
G1 X131.93 Y63.223 E.01681
G1 X120.277 Y51.57 E.5181
G1 X119.742 Y51.57 E.01681
G1 X131.93 Y63.758 E.54187
G1 X131.93 Y64.293 E.01681
G1 X119.207 Y51.57 E.56564
G1 X118.673 Y51.57 E.01681
G1 X131.93 Y64.827 E.58941
G1 X131.93 Y65.362 E.01681
G1 X118.138 Y51.57 E.61318
G1 X117.603 Y51.57 E.01681
G1 X131.93 Y65.897 E.63696
G1 X131.93 Y66.431 E.01681
G1 X117.069 Y51.57 E.66073
G1 X116.534 Y51.57 E.01681
G1 X131.93 Y66.966 E.6845
G1 X131.93 Y67.501 E.01681
G1 X115.999 Y51.57 E.70827
G1 X115.465 Y51.57 E.01681
G1 X131.93 Y68.035 E.73204
G1 X131.93 Y68.57 E.01681
G1 X114.93 Y51.57 E.75581
G1 X114.395 Y51.57 E.01681
G1 X131.93 Y69.105 E.77958
G1 X131.93 Y69.639 E.01681
G1 X113.861 Y51.57 E.80336
G1 X113.326 Y51.57 E.01681
G1 X131.93 Y70.174 E.82713
G1 X131.93 Y70.501 E.01027
G1 X131.747 Y70.525 E.00582
G1 X112.791 Y51.57 E.84274
G1 X112.257 Y51.57 E.01681
G1 X131.304 Y70.617 E.84683
G1 X130.861 Y70.709 E.01421
G1 X111.722 Y51.57 E.85092
G1 X111.187 Y51.57 E.01681
G1 X130.448 Y70.831 E.85631
G1 X130.053 Y70.971 E.01316
G1 X110.652 Y51.57 E.86255
G1 X110.118 Y51.57 E.01681
G1 X129.659 Y71.111 E.86878
G1 X129.299 Y71.286 E.01258
G1 X109.583 Y51.57 E.87654
G1 X109.048 Y51.57 E.01681
G1 X128.947 Y71.468 E.88465
G1 X128.594 Y71.65 E.01247
G1 X108.514 Y51.57 E.89277
G1 X107.979 Y51.57 E.01681
G1 X128.276 Y71.866 E.90237
G1 X127.962 Y72.088 E.01206
G1 X107.444 Y51.57 E.9122
G1 X106.91 Y51.57 E.01681
M73 P2 R89
G1 X127.649 Y72.309 E.92204
G1 X127.365 Y72.56 E.01191
M73 P2 R88
G1 X106.375 Y51.57 E.93321
G1 X105.84 Y51.57 E.01681
G1 X127.089 Y72.818 E.94469
G1 X126.812 Y73.077 E.01189
G1 X105.306 Y51.57 E.95617
G1 X104.771 Y51.57 E.01681
G1 X126.562 Y73.361 E.96882
G1 X126.322 Y73.656 E.01195
G1 X104.236 Y51.57 E.98193
G1 X103.702 Y51.57 E.01681
G1 X126.083 Y73.951 E.99504
G1 X125.867 Y74.27 E.01211
G1 X103.167 Y51.57 E1.00922
G1 X102.632 Y51.57 E.01681
G1 X125.665 Y74.602 E1.024
G1 X125.462 Y74.935 E.01223
G1 X102.098 Y51.57 E1.03878
G1 X101.563 Y51.57 E.01681
G1 X125.286 Y75.293 E1.0547
G1 X125.124 Y75.666 E.01278
G1 X101.028 Y51.57 E1.07128
G1 X100.493 Y51.57 E.01681
G1 X124.962 Y76.038 E1.08785
G1 X124.834 Y76.445 E.0134
G1 X99.959 Y51.57 E1.10593
G1 X99.424 Y51.57 E.01681
G1 X124.717 Y76.863 E1.1245
G1 X124.603 Y77.284 E.0137
G1 X98.889 Y51.57 E1.14321
G1 X98.355 Y51.57 E.01681
G1 X124.539 Y77.754 E1.16411
G1 X124.474 Y78.224 E.01492
G1 X97.82 Y51.57 E1.185
G1 X97.285 Y51.57 E.01681
G1 X124.448 Y78.732 E1.20761
G1 X124.448 Y79.267 E.01681
G1 X96.751 Y51.57 E1.23138
G1 X96.216 Y51.57 E.01681
G1 X124.482 Y79.836 E1.25668
G1 X124.567 Y80.456 E.01967
G1 X95.681 Y51.57 E1.28424
G1 X95.147 Y51.57 E.01681
G1 X124.718 Y81.141 E1.31473
G1 X124.93 Y81.888 E.02439
G1 X94.612 Y51.57 E1.34792
G1 X94.077 Y51.57 E.01681
G1 X125.798 Y83.291 E1.41029
M204 P1000
G1 E-2.24 F4200
;WIPE_START
G1 F7200
G1 X124.635 Y82.127 E-.912
;WIPE_END
G1 E-.048 F4200
G1 Z.4 F720
G1 X131.325 Y87.214 F9000
G1 Z.2 F720
G1 E3.2 F2400
M204 P800
G1 F1200
G1 X131.93 Y87.819 E.02689
G1 X131.93 Y88.353 E.01681
G1 X130.869 Y87.292 E.04717
G1 X130.687 Y87.254 E.00584
G1 X130.081 Y87.039 E.02022
G1 X131.93 Y88.888 E.0822
G1 X131.93 Y89.423 E.01681
G1 X128.743 Y86.235 E.14171
M204 P1000
G1 E-2.24 F4200
;WIPE_START
G1 F7200
G1 X129.906 Y87.399 E-.912
;WIPE_END
G1 E-.048 F4200
G1 Z.4 F720
G1 X132.1 Y90.127 F9000
G1 Z.2 F720
G1 E3.2 F2400
M204 P800
G1 F1200
G1 X93.543 Y51.57 E1.71422
G1 X93.008 Y51.57 E.01681
G1 X131.93 Y90.492 E1.73045
G1 X131.93 Y91.027 E.01681
G1 X92.473 Y51.57 E1.75422
G1 X91.939 Y51.57 E.01681
M73 P3 R88
G1 X131.93 Y91.561 E1.77799
G1 X131.93 Y92.096 E.01681
G1 X91.404 Y51.57 E1.80176
G1 X90.869 Y51.57 E.01681
M73 P3 R87
G1 X131.93 Y92.631 E1.82553
G1 X131.93 Y93.165 E.01681
G1 X90.335 Y51.57 E1.8493
G1 X89.8 Y51.57 E.01681
G1 X131.93 Y93.7 E1.87307
G1 X131.93 Y94.235 E.01681
G1 X89.265 Y51.57 E1.89685
G1 X88.73 Y51.57 E.01681
G1 X131.93 Y94.77 E1.92062
G1 X131.93 Y95.304 E.01681
G1 X88.196 Y51.57 E1.94439
G1 X87.661 Y51.57 E.01681
G1 X131.93 Y95.839 E1.96816
G1 X131.93 Y96.374 E.01681
G1 X87.126 Y51.57 E1.99193
G1 X86.592 Y51.57 E.01681
G1 X131.93 Y96.908 E2.0157
G1 X131.93 Y97.443 E.01681
G1 X86.057 Y51.57 E2.03947
G1 X85.522 Y51.57 E.01681
G1 X131.93 Y97.978 E2.06325
G1 X131.93 Y98.512 E.01681
G1 X84.988 Y51.57 E2.08702
G1 X84.453 Y51.57 E.01681
G1 X131.93 Y99.047 E2.11079
G1 X131.93 Y99.582 E.01681
G1 X83.918 Y51.57 E2.13456
G1 X83.384 Y51.57 E.01681
G1 X131.93 Y100.116 E2.15833
G1 X131.93 Y100.651 E.01681
M73 P4 R87
G1 X82.849 Y51.57 E2.1821
G1 X82.314 Y51.57 E.01681
G1 X131.93 Y101.186 E2.20588
G1 X131.93 Y101.72 E.01681
G1 X81.78 Y51.57 E2.22965
G1 X81.245 Y51.57 E.01681
G1 X131.93 Y102.255 E2.25342
G1 X131.93 Y102.79 E.01681
M73 P4 R86
G1 X80.71 Y51.57 E2.27719
G1 X80.176 Y51.57 E.01681
G1 X131.93 Y103.324 E2.30096
G1 X131.93 Y103.859 E.01681
G1 X79.641 Y51.57 E2.32473
G1 X79.106 Y51.57 E.01681
G1 X131.93 Y104.394 E2.3485
G1 X131.93 Y104.929 E.01681
G1 X78.571 Y51.57 E2.37228
G1 X78.037 Y51.57 E.01681
G1 X131.93 Y105.463 E2.39605
G1 X131.93 Y105.998 E.01681
G1 X77.502 Y51.57 E2.41982
G1 X76.967 Y51.57 E.01681
G1 X131.93 Y106.533 E2.44359
G1 X131.93 Y107.067 E.01681
G1 X76.433 Y51.57 E2.46736
G1 X75.898 Y51.57 E.01681
G1 X131.93 Y107.602 E2.49113
G1 X131.93 Y108.137 E.01681
G1 X75.363 Y51.57 E2.5149
G1 X74.829 Y51.57 E.01681
M73 P5 R86
G1 X131.93 Y108.671 E2.53868
G1 X131.93 Y109.206 E.01681
G1 X74.294 Y51.57 E2.56245
G1 X73.759 Y51.57 E.01681
G1 X131.93 Y109.741 E2.58622
G1 X131.93 Y110.001 E.00818
G1 X131.692 Y110.037 E.00758
G1 X73.225 Y51.57 E2.59939
G1 X72.69 Y51.57 E.01681
M73 P5 R85
G1 X131.249 Y110.129 E2.60348
G1 X130.806 Y110.221 E.01421
G1 X72.155 Y51.57 E2.60757
G1 X71.621 Y51.57 E.01681
G1 X130.399 Y110.348 E2.61322
G1 X130.004 Y110.488 E.01316
G1 X71.086 Y51.57 E2.61946
G1 X70.551 Y51.57 E.01681
G1 X129.61 Y110.628 E2.62569
G1 X129.255 Y110.808 E.01251
G1 X70.017 Y51.57 E2.63368
G1 X69.482 Y51.57 E.01681
G1 X128.903 Y110.991 E2.6418
G1 X128.551 Y111.173 E.01247
G1 X68.947 Y51.57 E2.64991
G1 X68.413 Y51.57 E.01681
G1 X128.237 Y111.394 E2.65972
G1 X127.923 Y111.615 E.01206
M73 P6 R85
G1 X67.878 Y51.57 E2.66956
G1 X67.343 Y51.57 E.01681
G1 X127.61 Y111.836 E2.6794
G1 X127.331 Y112.092 E.0119
G1 X66.808 Y51.57 E2.69077
G1 X66.274 Y51.57 E.01681
G1 X127.054 Y112.351 E2.70225
G1 X126.778 Y112.609 E.01189
G1 X65.739 Y51.57 E2.71373
G1 X65.204 Y51.57 E.01681
M73 P6 R84
G1 X126.532 Y112.898 E2.72659
G1 X126.293 Y113.193 E.01195
G1 X64.67 Y51.57 E2.73969
G1 X64.135 Y51.57 E.01681
G1 X126.053 Y113.488 E2.7528
G1 X125.842 Y113.811 E.01215
G1 X63.6 Y51.57 E2.76719
G1 X63.066 Y51.57 E.01681
G1 X125.64 Y114.144 E2.78198
G1 X125.437 Y114.476 E.01223
G1 X62.531 Y51.57 E2.79676
G1 X61.996 Y51.57 E.01681
G1 X125.266 Y114.839 E2.8129
G1 X125.104 Y115.212 E.01278
M73 P7 R84
G1 X61.462 Y51.57 E2.82947
G1 X60.927 Y51.57 E.01681
G1 X124.942 Y115.585 E2.84605
G1 X124.82 Y115.997 E.01352
G1 X60.392 Y51.57 E2.86438
G1 X59.858 Y51.57 E.01681
G1 X124.702 Y116.415 E2.88295
G1 X124.595 Y116.842 E.01385
G1 X59.323 Y51.57 E2.90194
G1 X58.788 Y51.57 E.01681
G1 X124.53 Y117.312 E2.92284
G1 X124.466 Y117.782 E.01492
G1 X58.254 Y51.57 E2.94374
G1 X57.719 Y51.57 E.01681
M73 P7 R83
G1 X124.448 Y118.299 E2.9667
G1 X124.448 Y118.833 E.01681
G1 X57.184 Y51.57 E2.99047
G1 X56.649 Y51.57 E.01681
G1 X124.493 Y119.413 E3.01625
G1 X124.578 Y120.033 E.01967
G1 X56.115 Y51.57 E3.04381
G1 X55.58 Y51.57 E.01681
G1 X124.744 Y120.734 E3.07497
G1 X124.923 Y121.371 E.02079
M73 P8 R83
G1 X124.981 Y121.506 E.00462
G1 X55.045 Y51.57 E3.10928
G1 X54.511 Y51.57 E.01681
G1 X125.902 Y122.961 E3.17398
M204 P1000
G1 E-2.24 F4200
;WIPE_START
G1 F7200
G1 X124.738 Y121.797 E-.912
;WIPE_END
G1 E-.048 F4200
G1 Z.4 F720
G1 X132.1 Y127.555 F9000
G1 Z.2 F720
G1 E3.2 F2400
M204 P800
G1 F1200
G1 X131.46 Y126.915 E.02845
G1 X130.785 Y126.775 E.02167
G1 X131.93 Y127.92 E.05091
G1 X131.93 Y128.43 E.01604
G1 X131.906 Y128.43 E.00077
G1 X129.978 Y126.502 E.0857
G1 X129.585 Y126.363 E.01312
G1 X129.001 Y126.06 E.02066
G1 X131.371 Y128.43 E.10536
G1 X130.836 Y128.43 E.01681
G1 X53.976 Y51.57 E3.41714
G1 X53.441 Y51.57 E.01681
G1 X130.302 Y128.43 E3.41714
G1 X129.767 Y128.43 E.01681
G1 X52.907 Y51.57 E3.41714
G1 X52.372 Y51.57 E.01681
G1 X129.232 Y128.43 E3.41714
G1 X128.698 Y128.43 E.01681
M73 P8 R82
G1 X51.837 Y51.57 E3.41714
G1 X51.303 Y51.57 E.01681
G1 X128.163 Y128.43 E3.41714
G1 X127.628 Y128.43 E.01681
G1 X50.768 Y51.57 E3.41714
G1 X50.233 Y51.57 E.01681
G1 X127.094 Y128.43 E3.41714
G1 X126.559 Y128.43 E.01681
M73 P9 R82
G1 X49.699 Y51.57 E3.41714
G1 X49.164 Y51.57 E.01681
G1 X126.024 Y128.43 E3.41714
G1 X125.489 Y128.43 E.01681
G1 X48.629 Y51.57 E3.41714
G1 X48.095 Y51.57 E.01681
G1 X124.955 Y128.43 E3.41714
G1 X124.42 Y128.43 E.01681
G1 X48.07 Y52.08 E3.39446
G1 X48.07 Y52.615 E.01681
G1 X123.885 Y128.43 E3.37069
G1 X123.351 Y128.43 E.01681
G1 X48.07 Y53.149 E3.34692
G1 X48.07 Y53.684 E.01681
M73 P9 R81
G1 X122.816 Y128.43 E3.32315
G1 X122.281 Y128.43 E.01681
G1 X48.07 Y54.219 E3.29938
G1 X48.07 Y54.753 E.01681
G1 X121.747 Y128.43 E3.2756
G1 X121.212 Y128.43 E.01681
M73 P10 R81
G1 X48.07 Y55.288 E3.25183
