; generated by PrusaSlicer 2.4.2+win64 on 2022-08-31 at 08:31:30 UTC


;
;

;
;
; 

; external perimeters extrusion width = 0.45mm
; perimeters extrusion width = 0.45mm
; infill extrusion width = 0.45mm
; solid infill extrusion width = 0.45mm
; top infill extrusion width = 0.40mm
; first layer extrusion width = 0.42mm

M73 P0 R22
M201 X2500 Y2500 Z400 E5000 ; sets maximum accelerations, mm/sec^2
M203 X180 Y180 Z12 E80 ; sets maximum feedrates, mm / sec
M204 P1250 R1250 T2500 ; sets acceleration (P, T) and retract acceleration (R), mm/sec^2
M205 X8.00 Y8.00 Z2.00 E10.00 ; sets the jerk limits, mm/sec
M205 S0 T0 ; sets the minimum extruding and travel feed rate, mm/sec
M107
;TYPE:Custom
M862.3 P "MINI" ; printer model check
G90 ; use absolute coordinates
M83 ; extruder relative mode
M104 S170 ; set extruder temp for bed leveling
M140 S60 ; set bed temp
M109 R170 ; wait for bed leveling temp
M190 S60 ; wait for bed temp
M204 T1250 ; set travel acceleration
G28 ; home all without mesh bed level
G29 ; mesh bed leveling 
M204 T2500 ; restore travel acceleration
M104 S215 ; set extruder temp
G92 E0
G1 Y-2 X179 F2400
G1 Z3 F720
M109 S215 ; wait for extruder temp

; intro line
M73 P0 R21
G1 X170 F1000
G1 Z0.2 F720
G1 X110 E8 F900
G1 X40 E10 F700
G92 E0

M221 S95 ; set flow
G21 ; set units to millimeters
G90 ; use absolute coordinates
M83 ; use relative distances for extrusion
M900 K0.2 ; Filament gcode LA 1.5
; ; Filament gcode LA 1.0
M107
;LAYER_CHANGE
;Z:0.2
;HEIGHT:0.2
;BEFORE_LAYER_CHANGE
G92 E0.0
;0.2


G1 E-3.2 F4200
M73 P1 R21
G1 Z.2 F720
;AFTER_LAYER_CHANGE
;0.2
G1 Z.4
G1 X63.06 Y77.817 F9000
G1 Z.2 F720
G1 E3.2 F2400
M204 P800
;TYPE:Skirt/Brim
;WIDTH:0.42
G1 F1200
G1 X64 Y77.623 E.03008
G1 X104 Y77.623 E1.25417
G1 X104.752 Y77.745 E.02388
G1 X116.752 Y81.745 E.3966
G1 X117.868 Y82.53 E.04278
G1 X118.377 Y84 E.04879
G1 X118.377 Y96 E.37625
G1 X117.985 Y97.307 E.04278
G1 X116.752 Y98.255 E.04879
G1 X104.752 Y102.255 E.3966
G1 X104 Y102.377 E.02388
G1 X64 Y102.377 E1.25417
G1 X62.693 Y101.985 E.04278
G1 X61.817 Y100.94 E.04278
G1 X61.623 Y100 E.03008
G1 X61.623 Y80 E.62709
G1 X62.015 Y78.693 E.04278
G1 X63.014 Y77.855 E.0409
M204 P1000
; printing object usbswatch v1.stl id:0 copy 0
G1 E-2.24 F4200
;WIPE_START
G1 F7200
G1 X64 Y77.623 E-.56121
G1 X64.633 Y77.623 E-.35079
;WIPE_END
G1 E-.048 F4200
G1 Z.4 F720
G1 X64.787 Y80.787 F9000
G1 Z.2 F720
G1 E3.2 F2400
M204 P800
;TYPE:Perimeter
G1 F1200
G1 X103.213 Y80.787 E1.20482
G1 X103.213 Y84.787 E.12542
G1 X115.213 Y84.787 E.37625
M73 P2 R21
G1 X115.213 Y95.213 E.3269
G1 X103.213 Y95.213 E.37625
G1 X103.213 Y99.213 E.12542
G1 X64.787 Y99.213 E1.20482
G1 X64.787 Y80.847 E.57585
M204 P1000
G1 X64.41 Y80.41 F9000
M204 P800
;TYPE:External perimeter
G1 F1200
G1 X103.59 Y80.41 E1.22846
G1 X103.59 Y84.41 E.12542
G1 X115.59 Y84.41 E.37625
G1 X115.59 Y95.59 E.35054
G1 X103.59 Y95.59 E.37625
G1 X103.59 Y99.59 E.12542
G1 X64.41 Y99.59 E1.22846
G1 X64.41 Y80.47 E.59949
M204 P1000
G1 X64.805 Y80.47 F9000
G1 E-2.24 F4200
;WIPE_START
G1 F7200
G1 X66.056 Y80.467 E-.912
;WIPE_END
G1 E-.048 F4200
G1 Z.4 F720
G1 X115.1 Y85.668 F9000
G1 Z.2 F720
G1 E3.2 F2400
M204 P800
;TYPE:Solid infill
;WIDTH:0.42284
G1 F1200
G1 X114.501 Y85.07 E.02674
G1 X113.964 Y85.07 E.01697
G1 X114.93 Y86.036 E.04317
G1 X114.93 Y86.573 E.01697
G1 X113.427 Y85.07 E.06717
G1 X112.889 Y85.07 E.01697
G1 X114.93 Y87.111 E.09117
G1 X114.93 Y87.648 E.01697
G1 X112.352 Y85.07 E.11518
G1 X111.815 Y85.07 E.01697
M73 P3 R21
G1 X114.93 Y88.185 E.13918
G1 X114.93 Y88.723 E.01697
G1 X111.277 Y85.07 E.16318
G1 X110.74 Y85.07 E.01697
G1 X114.93 Y89.26 E.18719
G1 X114.93 Y89.797 E.01697
G1 X110.203 Y85.07 E.21119
G1 X109.666 Y85.07 E.01697
G1 X114.93 Y90.334 E.2352
G1 X114.93 Y90.872 E.01697
G1 X109.128 Y85.07 E.2592
G1 X108.591 Y85.07 E.01697
G1 X114.93 Y91.409 E.2832
G1 X114.93 Y91.946 E.01697
G1 X108.054 Y85.07 E.30721
G1 X107.516 Y85.07 E.01697
G1 X114.93 Y92.484 E.33121
G1 X114.93 Y93.021 E.01697
G1 X106.979 Y85.07 E.35521
G1 X106.442 Y85.07 E.01697
G1 X114.93 Y93.558 E.37922
G1 X114.93 Y94.095 E.01697
G1 X105.905 Y85.07 E.40322
G1 X105.367 Y85.07 E.01697
G1 X114.93 Y94.633 E.42723
G1 X114.93 Y94.93 E.0094
G1 X114.69 Y94.93 E.00758
G1 X104.83 Y85.07 E.44051
G1 X104.293 Y85.07 E.01697
G1 X114.153 Y94.93 E.44051
G1 X113.616 Y94.93 E.01697
G1 X103.586 Y84.9 E.44809
M204 P1000
G1 E-2.24 F4200
;WIPE_START
G1 F7200
G1 X104.749 Y86.064 E-.912
;WIPE_END
G1 E-.048 F4200
G1 Z.4 F720
G1 X103.1 Y81.728 F9000
G1 Z.2 F720
G1 E3.2 F2400
M204 P800
G1 F1200
G1 X102.442 Y81.07 E.02939
G1 X101.905 Y81.07 E.01697
G1 X102.93 Y82.095 E.04582
G1 X102.93 Y82.633 E.01697
G1 X101.367 Y81.07 E.06982
G1 X100.83 Y81.07 E.01697
G1 X102.93 Y83.17 E.09382
G1 X102.93 Y83.707 E.01697
G1 X100.293 Y81.07 E.11783
G1 X99.755 Y81.07 E.01697
G1 X103.1 Y84.414 E.14941
M204 P1000
G1 E-2.24 F4200
;WIPE_START
G1 F7200
G1 X101.936 Y83.251 E-.912
;WIPE_END
G1 E-.048 F4200
G1 Z.4 F720
G1 X99.048 Y80.9 F9000
G1 Z.2 F720
G1 E3.2 F2400
M204 P800
G1 F1200
G1 X113.078 Y94.93 E.6268
G1 X112.541 Y94.93 E.01697
G1 X98.681 Y81.07 E.61922
G1 X98.144 Y81.07 E.01697
G1 X112.004 Y94.93 E.61922
G1 X111.467 Y94.93 E.01697
M73 P4 R21
G1 X97.606 Y81.07 E.61922
G1 X97.069 Y81.07 E.01697
G1 X110.929 Y94.93 E.61922
G1 X110.392 Y94.93 E.01697
G1 X96.532 Y81.07 E.61922
G1 X95.994 Y81.07 E.01697
G1 X109.855 Y94.93 E.61922
G1 X109.317 Y94.93 E.01697
G1 X95.457 Y81.07 E.61922
G1 X94.92 Y81.07 E.01697
G1 X108.78 Y94.93 E.61922
G1 X108.243 Y94.93 E.01697
G1 X94.383 Y81.07 E.61922
G1 X93.845 Y81.07 E.01697
G1 X107.706 Y94.93 E.61922
G1 X107.168 Y94.93 E.01697
G1 X93.308 Y81.07 E.61922
G1 X92.771 Y81.07 E.01697
G1 X106.631 Y94.93 E.61922
G1 X106.094 Y94.93 E.01697
G1 X92.233 Y81.07 E.61922
G1 X91.696 Y81.07 E.01697
M73 P4 R20
G1 X105.556 Y94.93 E.61922
G1 X105.019 Y94.93 E.01697
G1 X91.159 Y81.07 E.61922
G1 X90.622 Y81.07 E.01697
M73 P5 R20
G1 X104.482 Y94.93 E.61922
G1 X103.945 Y94.93 E.01697
G1 X90.084 Y81.07 E.61922
G1 X89.547 Y81.07 E.01697
G1 X103.407 Y94.93 E.61922
G1 X102.93 Y94.93 E.01507
G1 X102.93 Y94.99 E.0019
G1 X89.01 Y81.07 E.62191
G1 X88.472 Y81.07 E.01697
G1 X102.93 Y95.528 E.64591
G1 X102.93 Y96.065 E.01697
G1 X87.935 Y81.07 E.66991
G1 X87.398 Y81.07 E.01697
G1 X102.93 Y96.602 E.69392
G1 X102.93 Y97.139 E.01697
G1 X86.861 Y81.07 E.71792
G1 X86.323 Y81.07 E.01697
G1 X102.93 Y97.677 E.74192
G1 X102.93 Y98.214 E.01697
G1 X85.786 Y81.07 E.76593
G1 X85.249 Y81.07 E.01697
G1 X102.93 Y98.751 E.78993
G1 X102.93 Y98.93 E.00565
G1 X102.572 Y98.93 E.01133
G1 X84.711 Y81.07 E.79792
G1 X84.174 Y81.07 E.01697
M73 P6 R20
G1 X102.034 Y98.93 E.79792
G1 X101.497 Y98.93 E.01697
G1 X83.637 Y81.07 E.79792
G1 X83.1 Y81.07 E.01697
G1 X100.96 Y98.93 E.79792
G1 X100.422 Y98.93 E.01697
G1 X82.562 Y81.07 E.79792
G1 X82.025 Y81.07 E.01697
G1 X99.885 Y98.93 E.79792
G1 X99.348 Y98.93 E.01697
G1 X81.488 Y81.07 E.79792
G1 X80.95 Y81.07 E.01697
G1 X98.811 Y98.93 E.79792
G1 X98.273 Y98.93 E.01697
G1 X80.413 Y81.07 E.79792
G1 X79.876 Y81.07 E.01697
G1 X97.736 Y98.93 E.79792
G1 X97.199 Y98.93 E.01697
G1 X79.338 Y81.07 E.79792
G1 X78.801 Y81.07 E.01697
M73 P7 R20
G1 X96.661 Y98.93 E.79792
G1 X96.124 Y98.93 E.01697
G1 X78.264 Y81.07 E.79792
G1 X77.727 Y81.07 E.01697
G1 X95.587 Y98.93 E.79792
G1 X95.05 Y98.93 E.01697
G1 X77.189 Y81.07 E.79792
G1 X76.652 Y81.07 E.01697
G1 X94.512 Y98.93 E.79792
G1 X93.975 Y98.93 E.01697
G1 X76.115 Y81.07 E.79792
G1 X75.577 Y81.07 E.01697
G1 X93.438 Y98.93 E.79792
G1 X92.9 Y98.93 E.01697
G1 X75.04 Y81.07 E.79792
G1 X74.503 Y81.07 E.01697
G1 X92.363 Y98.93 E.79792
G1 X91.826 Y98.93 E.01697
G1 X73.966 Y81.07 E.79792
G1 X73.428 Y81.07 E.01697
M73 P8 R20
G1 X91.289 Y98.93 E.79792
G1 X90.751 Y98.93 E.01697
G1 X72.891 Y81.07 E.79792
G1 X72.354 Y81.07 E.01697
G1 X90.214 Y98.93 E.79792
G1 X89.677 Y98.93 E.01697
G1 X71.816 Y81.07 E.79792
G1 X71.279 Y81.07 E.01697
G1 X89.139 Y98.93 E.79792
G1 X88.602 Y98.93 E.01697
G1 X70.742 Y81.07 E.79792
G1 X70.205 Y81.07 E.01697
G1 X88.065 Y98.93 E.79792
G1 X87.528 Y98.93 E.01697
G1 X69.667 Y81.07 E.79792
G1 X69.13 Y81.07 E.01697
G1 X86.99 Y98.93 E.79792
G1 X86.453 Y98.93 E.01697
G1 X68.593 Y81.07 E.79792
G1 X68.055 Y81.07 E.01697
M73 P9 R20
G1 X85.916 Y98.93 E.79792
G1 X85.378 Y98.93 E.01697
G1 X67.518 Y81.07 E.79792
G1 X66.981 Y81.07 E.01697
G1 X84.841 Y98.93 E.79792
G1 X84.304 Y98.93 E.01697
G1 X66.444 Y81.07 E.79792
G1 X65.906 Y81.07 E.01697
M73 P9 R19
G1 X83.767 Y98.93 E.79792
G1 X83.229 Y98.93 E.01697
G1 X65.369 Y81.07 E.79792
G1 X65.07 Y81.07 E.00945
G1 X65.07 Y81.308 E.00752
G1 X82.692 Y98.93 E.78728
G1 X82.155 Y98.93 E.01697
G1 X65.07 Y81.845 E.76328
G1 X65.07 Y82.383 E.01697
G1 X81.617 Y98.93 E.73927
G1 X81.08 Y98.93 E.01697
G1 X65.07 Y82.92 E.71527
G1 X65.07 Y83.457 E.01697
G1 X80.543 Y98.93 E.69126
G1 X80.006 Y98.93 E.01697
M73 P10 R19
G1 X65.07 Y83.994 E.66726
G1 X65.07 Y84.532 E.01697
G1 X79.468 Y98.93 E.64326
G1 X78.931 Y98.93 E.01697
G1 X65.07 Y85.069 E.61925
G1 X65.07 Y85.606 E.01697
G1 X78.394 Y98.93 E.59525
G1 X77.856 Y98.93 E.01697
G1 X65.07 Y86.144 E.57125
G1 X65.07 Y86.681 E.01697
G1 X77.319 Y98.93 E.54724
G1 X76.782 Y98.93 E.01697
G1 X65.07 Y87.218 E.52324
G1 X65.07 Y87.755 E.01697
G1 X76.245 Y98.93 E.49923
G1 X75.707 Y98.93 E.01697
G1 X65.07 Y88.293 E.47523
G1 X65.07 Y88.83 E.01697
G1 X75.17 Y98.93 E.45123
G1 X74.633 Y98.93 E.01697
G1 X65.07 Y89.367 E.42722
G1 X65.07 Y89.905 E.01697
G1 X74.095 Y98.93 E.40322
G1 X73.558 Y98.93 E.01697
G1 X65.07 Y90.442 E.37922
G1 X65.07 Y90.979 E.01697
G1 X73.021 Y98.93 E.35521
G1 X72.483 Y98.93 E.01697
G1 X65.07 Y91.517 E.33121
G1 X65.07 Y92.054 E.01697
M73 P11 R19
G1 X71.946 Y98.93 E.3072
G1 X71.409 Y98.93 E.01697
G1 X65.07 Y92.591 E.2832
G1 X65.07 Y93.128 E.01697
G1 X70.872 Y98.93 E.2592
G1 X70.334 Y98.93 E.01697
G1 X65.07 Y93.666 E.23519
G1 X65.07 Y94.203 E.01697
G1 X69.797 Y98.93 E.21119
G1 X69.26 Y98.93 E.01697
G1 X65.07 Y94.74 E.18719
G1 X65.07 Y95.278 E.01697
G1 X68.722 Y98.93 E.16318
G1 X68.185 Y98.93 E.01697
G1 X65.07 Y95.815 E.13918
G1 X65.07 Y96.352 E.01697
G1 X67.648 Y98.93 E.11518
G1 X67.111 Y98.93 E.01697
G1 X65.07 Y96.889 E.09117
G1 X65.07 Y97.427 E.01697
G1 X66.573 Y98.93 E.06717
G1 X66.036 Y98.93 E.01697
G1 X65.07 Y97.964 E.04316
G1 X65.07 Y98.501 E.01697
G1 X65.668 Y99.1 E.02674
M204 P1000
; stop printing object usbswatch v1.stl id:0 copy 0
M106 S84.15
;LAYER_CHANGE
;Z:0.35
;HEIGHT:0.15
;BEFORE_LAYER_CHANGE
G92 E0.0
;0.35


G1 E-2.24 F4200
;WIPE_START
G1 F7200
G1 X65.07 Y98.501 E-.4691
G1 X65.07 Y97.964 E-.29775
G1 X65.255 Y98.149 E-.14516
;WIPE_END
G1 E-.048 F4200
G1 Z.4 F720
;AFTER_LAYER_CHANGE
;0.35
G1 X61.623 Y98.149 F9000
G1 Z.35 F720
G1 E3.2 F2400
;TYPE:Skirt/Brim
;WIDTH:0.42
G1 X61.623 Y80 E.43894
G1 X62.015 Y78.693 E.033
G1 X63.06 Y77.817 E.033
G1 X64 Y77.623 E.02321
G1 X104 Y77.623 E.9674
G1 X104.752 Y77.745 E.01842
G1 X116.752 Y81.745 E.30592
G1 X117.868 Y82.53 E.033
G1 X118.377 Y84 E.03763
G1 X118.377 Y96 E.29022
G1 X117.985 Y97.307 E.033
G1 X116.752 Y98.255 E.03763
G1 X104.752 Y102.255 E.30592
G1 X104 Y102.377 E.01842
G1 X64 Y102.377 E.9674
G1 X62.693 Y101.985 E.033
G1 X61.817 Y100.94 E.033
G1 X61.623 Y100 E.02321
G1 X61.623 Y98.209 E.04331
; printing object usbswatch v1.stl id:0 copy 0
G1 E-2.24 F4200
;WIPE_START
G1 F7200
G1 X61.623 Y96.563 E-.912
;WIPE_END
G1 E-.048 F4200
G1 Z.55 F720
G1 X103.357 Y84.643 F9000
G1 Z.35 F720
G1 E3.2 F2400
M204 P800
;TYPE:Perimeter
;WIDTH:0.45
G1 X115.357 Y84.643 E.31267
G1 X115.357 Y95.357 E.27917
G1 X103.357 Y95.357 E.31267
G1 X103.357 Y99.357 E.10422
G1 X64.643 Y99.357 E1.00873
G1 X64.643 Y80.643 E.48762
G1 X103.357 Y80.643 E1.00873
G1 X103.357 Y84.583 E.10266
M204 P1000
G1 X103.775 Y84.225 F9000
M204 P800
;TYPE:External perimeter
G1 F1800
G1 X115.775 Y84.225 E.31267
G1 X115.775 Y95.775 E.30094
G1 X103.775 Y95.775 E.31267
M73 P12 R19
G1 X103.775 Y99.775 E.10422
G1 X64.225 Y99.775 E1.03051
G1 X64.225 Y80.225 E.50939
G1 X103.775 Y80.225 E1.03051
G1 X103.775 Y84.165 E.10266
M204 P1000
G1 X103.963 Y84.578 F9000
G1 E-2.24 F4200
;WIPE_START
G1 F7200
G1 X105.421 Y84.173 E-.912
;WIPE_END
G1 E-.048 F4200
G1 Z.55 F720
G1 X115.232 Y94.387 F9000
G1 Z.35 F720
G1 E3.2 F2400
;TYPE:Solid infill
;WIDTH:0.450096
G1 F4800
G1 X114.575 Y95.044 E.02421
G1 X113.984 Y95.044 E.0154
G1 X115.044 Y93.984 E.03906
G1 X115.044 Y93.393 E.0154
G1 X113.393 Y95.044 E.06084
G1 X112.802 Y95.044 E.0154
G1 X115.044 Y92.802 E.08263
G1 X115.044 Y92.211 E.0154
G1 X112.211 Y95.044 E.10441
G1 X111.62 Y95.044 E.0154
G1 X115.044 Y91.62 E.12619
G1 X115.044 Y91.029 E.0154
G1 X111.029 Y95.044 E.14797
G1 X110.438 Y95.044 E.0154
G1 X115.044 Y90.438 E.16976
G1 X115.044 Y89.847 E.0154
G1 X109.847 Y95.044 E.19154
G1 X109.256 Y95.044 E.0154
G1 X115.044 Y89.256 E.21332
G1 X115.044 Y88.665 E.0154
G1 X108.665 Y95.044 E.23511
G1 X108.074 Y95.044 E.0154
G1 X115.044 Y88.074 E.25689
G1 X115.044 Y87.483 E.0154
G1 X107.483 Y95.044 E.27867
G1 X106.892 Y95.044 E.0154
G1 X115.044 Y86.892 E.30045
G1 X115.044 Y86.301 E.0154
G1 X106.301 Y95.044 E.32224
G1 X105.71 Y95.044 E.0154
G1 X115.044 Y85.71 E.34402
G1 X115.044 Y85.119 E.0154
G1 X105.119 Y95.044 E.3658
G1 X104.528 Y95.044 E.0154
G1 X114.616 Y84.956 E.3718
G1 X114.025 Y84.956 E.0154
G1 X103.749 Y95.232 E.37873
G1 E-2.24 F4200
;WIPE_START
G1 F7200
G1 X104.913 Y94.068 E-.912
;WIPE_END
G1 E-.048 F4200
G1 Z.55 F720
G1 X103.232 Y98.704 F9000
G1 Z.35 F720
G1 E3.2 F2400
G1 F4800
G1 X102.892 Y99.044 E.01253
G1 X102.301 Y99.044 E.0154
G1 X103.044 Y98.301 E.02738
G1 X103.044 Y97.71 E.0154
G1 X101.71 Y99.044 E.04916
G1 X101.119 Y99.044 E.0154
G1 X103.044 Y97.119 E.07095
G1 X103.044 Y96.528 E.0154
G1 X100.528 Y99.044 E.09273
G1 X99.937 Y99.044 E.0154
G1 X103.232 Y95.749 E.12144
G1 E-2.24 F4200
;WIPE_START
G1 F7200
G1 X102.068 Y96.913 E-.912
;WIPE_END
G1 E-.048 F4200
G1 Z.55 F720
G1 X99.158 Y99.232 F9000
G1 Z.35 F720
G1 E3.2 F2400
G1 F4800
G1 X113.434 Y84.956 E.52616
G1 X112.843 Y84.956 E.0154
G1 X98.755 Y99.044 E.51923
G1 X98.164 Y99.044 E.0154
G1 X112.252 Y84.956 E.51923
G1 X111.661 Y84.956 E.0154
G1 X97.573 Y99.044 E.51923
G1 X96.982 Y99.044 E.0154
G1 X111.07 Y84.956 E.51923
G1 X110.479 Y84.956 E.0154
G1 X96.391 Y99.044 E.51923
G1 X95.8 Y99.044 E.0154
G1 X109.888 Y84.956 E.51923
G1 X109.297 Y84.956 E.0154
G1 X95.209 Y99.044 E.51923
G1 X94.618 Y99.044 E.0154
G1 X108.706 Y84.956 E.51923
G1 X108.115 Y84.956 E.0154
G1 X94.027 Y99.044 E.51923
G1 X93.436 Y99.044 E.0154
G1 X107.523 Y84.956 E.51923
G1 X106.932 Y84.956 E.0154
M73 P13 R19
G1 X92.845 Y99.044 E.51923
G1 X92.254 Y99.044 E.0154
G1 X106.341 Y84.956 E.51923
G1 X105.75 Y84.956 E.0154
G1 X91.663 Y99.044 E.51923
G1 X91.072 Y99.044 E.0154
G1 X105.159 Y84.956 E.51923
G1 X104.568 Y84.956 E.0154
G1 X90.481 Y99.044 E.51923
G1 X89.89 Y99.044 E.0154
G1 X103.977 Y84.956 E.51923
G1 X103.386 Y84.956 E.0154
G1 X89.299 Y99.044 E.51923
G1 X88.708 Y99.044 E.0154
G1 X103.044 Y84.708 E.52838
G1 X103.044 Y84.117 E.0154
G1 X88.117 Y99.044 E.55017
G1 X87.526 Y99.044 E.0154
G1 X103.044 Y83.526 E.57195
G1 X103.044 Y82.935 E.0154
G1 X86.935 Y99.044 E.59373
G1 X86.344 Y99.044 E.0154
G1 X103.044 Y82.344 E.61551
G1 X103.044 Y81.753 E.0154
G1 X85.753 Y99.044 E.6373
G1 X85.162 Y99.044 E.0154
G1 X103.044 Y81.162 E.65908
G1 X103.044 Y80.956 E.00536
G1 X102.658 Y80.956 E.01005
G1 X84.571 Y99.044 E.66666
G1 X83.98 Y99.044 E.0154
G1 X102.067 Y80.956 E.66666
G1 X101.476 Y80.956 E.0154
G1 X83.389 Y99.044 E.66666
G1 X82.798 Y99.044 E.0154
G1 X100.885 Y80.956 E.66666
G1 X100.294 Y80.956 E.0154
G1 X82.207 Y99.044 E.66666
G1 X81.616 Y99.044 E.0154
G1 X99.703 Y80.956 E.66666
G1 X99.112 Y80.956 E.0154
G1 X81.025 Y99.044 E.66666
G1 X80.434 Y99.044 E.0154
G1 X98.521 Y80.956 E.66666
G1 X97.93 Y80.956 E.0154
G1 X79.843 Y99.044 E.66666
G1 X79.252 Y99.044 E.0154
G1 X97.339 Y80.956 E.66666
G1 X96.748 Y80.956 E.0154
G1 X78.661 Y99.044 E.66666
G1 X78.07 Y99.044 E.0154
G1 X96.157 Y80.956 E.66666
G1 X95.566 Y80.956 E.0154
G1 X77.479 Y99.044 E.66666
G1 X76.888 Y99.044 E.0154
G1 X94.975 Y80.956 E.66666
G1 X94.384 Y80.956 E.0154
G1 X76.297 Y99.044 E.66666
G1 X75.706 Y99.044 E.0154
G1 X93.793 Y80.956 E.66666
G1 X93.202 Y80.956 E.0154
M73 P13 R18
